X: 3118
T: Bearna, The
R: waltz
M: 3/4
K: Gmajor
G2BG BG|G2BG BG|F2AF AF|F2AF AF|
G2EG GE|FGEF GE|F2FE FG|A3G F/E/D|
G2BG BG|G2BG BG|F2AF AF|F2AF AF|
G2EG ce|cGEG ce|ABBA Bc|B3A AG||
d2ed BA|GEDE GA|d2ed BA|B3A AG|
d2ed BA|GEDE GA|F2FE FG|1 A2AG FA:|2 ABAG FA||

